svg/300/sharp/diversity_4-fill.svg

<svg xmlns="http://www.w3.org/2000/svg" width="48" height="48" viewBox="0 -960 960 960"><path d="m496.923-100.001 53.692-49.23q115.23-104.615 155.384-161Q746.153-366.616 746.153-425q0-20.846-6-38.922-6-18.077-16.538-36.077h136.384v399.998H496.923Zm-396.922 0v-399.998h136.384q-10.384 17.154-16.461 35.805-6.077 18.652-6.077 39.194 0 59.538 37.808 113.192 37.808 53.654 158.5 163.73l52.922 48.077H100.001ZM759.973-560q-42.511 0-71.241-28.724-28.731-28.723-28.731-71.184 0-41.628 28.724-70.859 28.724-29.23 71.184-29.23 41.629 0 70.859 29.174 29.231 29.174 29.231 70.851 0 42.511-29.175 71.242Q801.65-560 759.973-560Zm-279.95-40q-50.561 0-85.291-34.678-34.731-34.678-34.731-85.196 0-49.662 34.678-84.893 34.678-35.23 85.197-35.23 49.662 0 84.892 35.136 35.231 35.135 35.231 84.839 0 50.561-35.136 85.292Q529.727-600 480.023-600ZM259.231-425q0 46.385 41.615 100.192Q342.461-271 465.384-158.924l15.001 13.078 15.001-14.232q116.307-106.999 160.845-162.563Q700.769-378.204 700.769-425q0-48.769-32.5-82.269-32.5-33.5-80.269-33.5-27.769 0-50.462 11.884-22.692 11.885-41.077 29.654L480-483.154l-17.461-16.461q-18.77-16.77-41.847-28.962T372-540.769q-48.385 0-80.577 33.5T259.231-425Zm-59.258-135q-42.511 0-71.241-28.724-28.731-28.723-28.731-71.184 0-41.628 28.724-70.859 28.724-29.23 71.185-29.23 41.628 0 70.858 29.174 29.231 29.174 29.231 70.851 0 42.511-29.175 71.242Q241.65-560 199.973-560Z"/></svg>

<svg xmlns="http://www.w3.org/2000/svg" width="48" height="48" viewBox="0 -960 960 960"><path d="m496.92-100 53.69-49.23q115.23-104.62 155.39-161 40.15-56.39 40.15-114.77 0-20.85-6-38.92-6-18.08-16.54-36.08H860v400H496.92ZM100-100v-400h136.39q-10.39 17.16-16.47 35.81-6.07 18.65-6.07 39.19 0 59.54 37.8 113.19 37.81 53.66 158.5 163.73L463.08-100H100Zm659.97-460q-42.51 0-71.24-28.72Q660-617.45 660-659.91q0-41.63 28.73-70.86Q717.45-760 759.91-760q41.63 0 70.86 29.18Q860-701.65 860-659.97q0 42.51-29.18 71.24Q801.65-560 759.97-560Zm-279.95-40q-50.56 0-85.29-34.68Q360-669.36 360-719.87q0-49.67 34.68-84.9Q429.36-840 479.88-840q49.66 0 84.89 35.14Q600-769.73 600-720.02q0 50.56-35.14 85.29Q529.73-600 480.02-600ZM259.23-425q0 46.38 41.62 100.19Q342.46-271 465.38-158.92l15 13.07 15.01-14.23q116.3-107 160.84-162.56Q700.77-378.2 700.77-425q0-48.77-32.5-82.27-32.5-33.5-80.27-33.5-27.77 0-50.46 11.89-22.69 11.88-41.08 29.65L480-483.15l-17.46-16.47q-18.77-16.76-41.85-28.96-23.07-12.19-48.69-12.19-48.38 0-80.58 33.5-32.19 33.5-32.19 82.27Zm-59.26-135q-42.51 0-71.24-28.72Q100-617.45 100-659.91q0-41.63 28.73-70.86Q157.45-760 199.91-760q41.63 0 70.86 29.18Q300-701.65 300-659.97q0 42.51-29.18 71.24Q241.65-560 199.97-560Z"/></svg>
